X: 42
T:Douce dame jolie
G:French love song
C:Guillaume de Machaut, c.1340
M:C|
L:1/4
Q:1/4=150
K:GDor
d|d G F G|B/AG/ AA   |G d d/c   B/|B/AG/ Ad   |
  G G F G|B/AG/ Ac   |B>A G   F   |G3        ||
e|g g f e|d2    d/cB/|d2  e/d/c/B/|AG    Bc   |d3
e|g g f e|d2    d/cB/|d2  e/d/c/B/|AG    A/GF/|G3||
d|d G F G|B/AG/ AA   |G d d/c   B/|B/AG/ Ad   |
  G G F G|B/AG/ Ac   |B>A G   F   |G3        |]

It was always one of the commonest modes for religious music, and not
just in Catholic Europe, as in this 16th century Scottish psalm tune,
which must be a good candidate to be the most-sung tune in Scottish
history:

